ufans-frontend-package/public/assets/images/new-chat/audio-call.svg

<svg width="100" height="97" viewBox="0 0 100 97" fill="none" xmlns="http://www.w3.org/2000/svg">
<g clip-path="url(#clip0_1343_26)">
<path d="M23.7795 46.0107C26.6848 51.2434 30.0214 56.2646 34.3752 60.8544C38.7209 65.4687 44.1408 69.6598 51.1558 73.2405C51.6766 73.4928 52.1731 73.4928 52.6044 73.3219C53.2717 73.0696 53.9553 72.5162 54.6226 71.8489C55.1434 71.328 55.7863 70.498 56.4618 69.5946C59.1555 66.0465 62.5002 61.6438 67.2121 63.8411C67.3179 63.8899 67.3993 63.9469 67.497 63.9957L83.2277 73.037C83.2766 73.0614 83.3335 73.1184 83.3824 73.1428C85.4576 74.567 86.3121 76.7724 86.3365 79.2626C86.3365 81.8017 85.4006 84.6581 84.0334 87.0588C82.2268 90.2408 79.5494 92.3486 76.4732 93.7402C73.5435 95.0911 70.2802 95.8154 67.147 96.2792C62.2235 97.0035 57.6174 96.5396 52.9055 95.0911C48.2912 93.6669 43.6526 91.3069 38.5826 88.1737L38.2082 87.9377C35.8807 86.4892 33.3661 84.9267 30.9003 83.0956C21.8671 76.276 12.6711 66.4371 6.68153 55.6054C1.65223 46.5071 -1.09028 36.6926 0.407116 27.3339C1.23719 22.207 3.43446 17.5439 7.2756 14.4596C10.6203 11.7659 15.1207 10.2847 20.9556 10.8056C21.6229 10.8544 22.2252 11.245 22.5344 11.8147L32.6174 28.8557C34.0904 30.7681 34.2776 32.6643 33.4719 34.5605C32.8046 36.1148 31.4537 37.5471 29.6145 38.8818C29.0692 39.3456 28.4263 39.8176 27.7509 40.3059C25.4966 41.9417 22.9332 43.8297 23.8121 46.0595L23.7795 46.0107ZM59.6926 6.1425C59.2776 6.10995 58.8869 5.99601 58.537 5.81698C58.1708 5.6298 57.8534 5.37752 57.593 5.07642C57.3326 4.76717 57.1291 4.41724 56.9989 4.02661C56.885 3.65226 56.8361 3.2535 56.8687 2.83846L56.8768 2.78149C56.9094 2.38273 57.0233 2.00838 57.1942 1.67472L57.2268 1.61776C57.4058 1.27596 57.65 0.974854 57.9348 0.738851C58.2359 0.478434 58.594 0.274984 58.9846 0.144775C59.3508 0.0227051 59.7414 -0.026123 60.1402 -0.00170898L60.2216 0.00642904C63.0129 0.226156 65.7066 0.649333 68.2945 1.26782C70.9068 1.89445 73.397 2.73267 75.7489 3.74992C78.1171 4.78345 80.3469 6.01229 82.4221 7.4283C84.4891 8.84432 86.4179 10.4475 88.1675 12.2297C89.9009 13.9957 91.4716 15.9407 92.8632 18.0484C94.2385 20.1399 95.4348 22.3941 96.4439 24.7867C97.4205 27.1305 98.218 29.6207 98.8202 32.2574C99.4061 34.8372 99.8049 37.5471 100 40.3792L100.008 40.5175V40.664C100.008 41.0383 99.9432 41.4045 99.8212 41.7463C99.691 42.1126 99.4957 42.4381 99.2434 42.7229C98.9911 43.0077 98.69 43.2437 98.3482 43.4228C98.0308 43.5937 97.6646 43.6995 97.2821 43.7483L97.1194 43.7646H96.9647C96.5822 43.7727 96.216 43.7076 95.8742 43.5774C95.5162 43.4472 95.1825 43.2519 94.8977 42.9996C94.5966 42.7392 94.3443 42.4137 94.1653 42.0474C93.9944 41.6975 93.8804 41.2987 93.856 40.8918C93.6851 38.3772 93.3433 35.9846 92.8306 33.7304C92.3179 31.4273 91.6262 29.2545 90.7798 27.2118C89.9335 25.1611 88.9162 23.2405 87.7525 21.4664C86.5725 19.6679 85.246 18.024 83.7811 16.5266C82.3 15.0211 80.6806 13.6702 78.9227 12.4739C77.1568 11.2695 75.2525 10.2278 73.218 9.34888L73.1854 9.3326C71.1672 8.46183 69.0269 7.74569 66.7727 7.20858C64.5266 6.69588 62.1666 6.32967 59.6926 6.1425ZM52.9218 35.1627C52.5067 35.122 52.1161 34.9918 51.7743 34.8127C51.4162 34.6174 51.0988 34.357 50.8547 34.0478C50.6187 33.7548 50.4315 33.413 50.3095 33.0468C50.1955 32.705 50.1467 32.3388 50.163 31.9644C50.1711 31.8586 50.1711 31.7773 50.1874 31.6796C50.2444 31.289 50.3746 30.9228 50.5536 30.6054C50.7408 30.2717 50.9931 29.9788 51.286 29.7428C51.579 29.5068 51.9208 29.3196 52.287 29.1975C52.6288 29.0917 52.995 29.0348 53.3775 29.051L53.6623 29.0754C54.8749 29.2056 56.0386 29.4172 57.1617 29.7021C58.301 29.995 59.3834 30.3694 60.4006 30.8088L60.4332 30.8251C61.4667 31.2808 62.4351 31.8098 63.3384 32.4202C64.2499 33.0387 65.0962 33.7304 65.8775 34.5116C66.6506 35.2848 67.3505 36.123 67.969 37.0344C68.5875 37.9377 69.1246 38.9062 69.5884 39.9478C70.036 40.9651 70.4104 42.0474 70.7033 43.1868C70.9882 44.3017 71.1916 45.4898 71.3218 46.7431C71.3625 47.1581 71.3218 47.565 71.216 47.9394L71.2079 47.9719C71.094 48.3463 70.8987 48.6962 70.6627 48.9973L70.6545 49.0136C70.4022 49.3228 70.093 49.5751 69.7349 49.7704C69.3931 49.9576 69.0025 50.0797 68.5875 50.1204H68.5468C68.148 50.1529 67.7574 50.1122 67.3912 50.0064C67.0005 49.8925 66.6425 49.6972 66.3332 49.4449H66.3251C66.0158 49.1926 65.7554 48.8834 65.5601 48.5172C65.3729 48.1754 65.2509 47.7848 65.2102 47.3779V47.3453C65.1207 46.4583 64.9742 45.6119 64.7707 44.8062C64.5673 43.9843 64.3069 43.2193 63.9976 42.5113C63.6884 41.8033 63.3303 41.1441 62.9234 40.5419C62.5084 39.9316 62.0526 39.3782 61.5481 38.8736C61.0435 38.3691 60.482 37.9133 59.8716 37.5064C59.2613 37.0995 58.594 36.7415 57.8697 36.4241L57.829 36.4078C57.121 36.0986 56.356 35.8463 55.5503 35.6428C54.704 35.4068 53.8332 35.2603 52.9218 35.1627ZM56.177 21.149H56.0956L55.9898 21.1327C55.6073 21.092 55.2492 20.9781 54.9319 20.8153C54.5901 20.6363 54.289 20.4003 54.0367 20.1236C53.7763 19.8306 53.5728 19.497 53.4426 19.1226C53.3205 18.7727 53.2554 18.3984 53.2636 17.9996V17.8612L53.2798 17.731C53.3205 17.3567 53.4345 16.9986 53.5972 16.6812C53.7763 16.3394 54.0123 16.0302 54.289 15.7861C54.5901 15.5175 54.94 15.314 55.3306 15.1757C55.705 15.0455 56.1037 14.9885 56.5188 15.0129C58.6835 15.1431 60.7424 15.4198 62.6874 15.8349C64.6405 16.2499 66.4878 16.8114 68.205 17.5113C69.9384 18.2193 71.5578 19.0738 73.0552 20.0667C74.5363 21.0514 75.9035 22.1825 77.1324 23.4602C78.3531 24.7216 79.4436 26.1213 80.3876 27.6513C81.3235 29.165 82.1291 30.8088 82.7802 32.5748C83.4149 34.3 83.9195 36.1555 84.2776 38.1412C84.6275 40.0943 84.8391 42.1532 84.9042 44.3424L84.9123 44.4563C84.9123 44.8469 84.8391 45.2294 84.6926 45.5793C84.5461 45.9456 84.3345 46.2711 84.0741 46.5559C83.8056 46.8489 83.4719 47.0849 83.0975 47.2476C82.7476 47.4104 82.3488 47.4999 81.9338 47.5162H81.7955C81.4048 47.5081 81.0386 47.4348 80.6968 47.2965C80.3306 47.15 80.0051 46.9384 79.7284 46.678C79.4354 46.4013 79.1994 46.0758 79.0285 45.7014C78.8658 45.3433 78.7763 44.9527 78.76 44.5295C78.7112 42.7066 78.5321 40.9895 78.2473 39.37C77.9625 37.7343 77.5556 36.2125 77.051 34.8127C76.5464 33.413 75.9279 32.1272 75.2118 30.9472C74.4875 29.759 73.6574 28.693 72.7297 27.7245C71.7857 26.7561 70.744 25.8853 69.5966 25.1285C68.441 24.3635 67.1633 23.7043 65.7961 23.151L65.7636 23.1347C64.3801 22.5894 62.899 22.1418 61.3121 21.8082C59.717 21.4745 58.0162 21.2467 56.2258 21.1409L56.177 21.149Z" fill="#6661E7"/>
</g>
<defs>
<clipPath id="clip0_1343_26">
<rect width="100" height="96.6146" fill="white"/>
</clipPath>
</defs>
</svg>

<svg xmlns="http://www.w3.org/2000/svg" xmlns:xlink="http://www.w3.org/1999/xlink" width="100" height="96.615" viewBox="0 0 100 96.615">
  <defs>
    <clipPath id="clip-path">
      <rect id="Rectangle_1" data-name="Rectangle 1" width="100" height="96.615" fill="#e44499"/>
    </clipPath>
  </defs>
  <g id="audio-call" clip-path="url(#clip-path)">
    <path id="Path_1" data-name="Path 1" d="M23.779,46.011a71.693,71.693,0,0,0,10.6,14.844A60.271,60.271,0,0,0,51.156,73.241a1.754,1.754,0,0,0,1.449.081,6.238,6.238,0,0,0,2.018-1.473A22.922,22.922,0,0,0,56.462,69.6c2.694-3.548,6.038-7.951,10.75-5.753.106.049.187.106.285.155l15.731,9.041c.049.024.106.081.155.106a7.1,7.1,0,0,1,2.954,6.12,16.557,16.557,0,0,1-2.3,7.8,15.954,15.954,0,0,1-7.56,6.681,34.414,34.414,0,0,1-9.326,2.539A31.6,31.6,0,0,1,52.909,95.1a62.966,62.966,0,0,1-14.323-6.917l-.374-.236C35.885,86.494,33.37,84.932,30.9,83.1a91.533,91.533,0,0,1-24.222-27.5C1.652,46.507-1.09,36.693.407,27.334c.83-5.127,3.027-9.79,6.868-12.874,3.345-2.694,7.845-4.175,13.68-3.654a1.971,1.971,0,0,1,1.579,1.009L32.617,28.856a5.34,5.34,0,0,1,.854,5.7,11.084,11.084,0,0,1-3.857,4.321c-.545.464-1.188.936-1.864,1.424-2.254,1.636-4.818,3.524-3.939,5.754ZM59.693,6.142a3.058,3.058,0,0,1-1.156-.326,3.126,3.126,0,0,1-.944-.741A3.191,3.191,0,0,1,57,4.027a3.2,3.2,0,0,1-.13-1.188l.008-.057a2.956,2.956,0,0,1,.317-1.107l.033-.057a2.882,2.882,0,0,1,.708-.879,3.111,3.111,0,0,1,1.05-.594A3.055,3.055,0,0,1,60.14,0l.081.008a52.389,52.389,0,0,1,8.073,1.261A45.513,45.513,0,0,1,75.749,3.75a40.712,40.712,0,0,1,6.673,3.678,38.3,38.3,0,0,1,10.441,10.62,41.852,41.852,0,0,1,3.581,6.738,46.049,46.049,0,0,1,2.376,7.471A53.14,53.14,0,0,1,100,40.379l.008.138v.146a3.222,3.222,0,0,1-.187,1.082,2.955,2.955,0,0,1-.578.977,3.136,3.136,0,0,1-.9.7,3.075,3.075,0,0,1-1.066.326l-.163.016h-.155a2.876,2.876,0,0,1-1.09-.187,3.068,3.068,0,0,1-2.018-2.686,46.541,46.541,0,0,0-1.025-7.161,39.326,39.326,0,0,0-2.051-6.519,34.382,34.382,0,0,0-3.027-5.745,32.681,32.681,0,0,0-3.971-4.94,32.248,32.248,0,0,0-4.858-4.053,34.1,34.1,0,0,0-5.7-3.125l-.033-.016a38.975,38.975,0,0,0-6.413-2.124,48.073,48.073,0,0,0-7.08-1.066Zm-6.771,29.02a3.148,3.148,0,0,1-1.147-.35,3,3,0,0,1-.92-.765,3.23,3.23,0,0,1-.545-1,3,3,0,0,1-.147-1.082c.008-.106.008-.187.024-.285a3.112,3.112,0,0,1,.366-1.074,3,3,0,0,1,.732-.863,3.084,3.084,0,0,1,2.091-.692l.285.024a25.1,25.1,0,0,1,3.5.627A21.954,21.954,0,0,1,60.4,30.809l.033.016a18.5,18.5,0,0,1,2.905,1.6,17.344,17.344,0,0,1,4.631,4.614,18.333,18.333,0,0,1,1.619,2.913A21.058,21.058,0,0,1,70.7,43.187a24.681,24.681,0,0,1,.618,3.556,3.243,3.243,0,0,1-.106,1.2l-.008.033A3.188,3.188,0,0,1,70.663,49l-.008.016a3.076,3.076,0,0,1-.92.757,3,3,0,0,1-1.147.35h-.041a3.217,3.217,0,0,1-1.156-.114,3.011,3.011,0,0,1-1.058-.562h-.008A3.077,3.077,0,0,1,65.21,47.38v-.033a17.558,17.558,0,0,0-.439-2.539,14.316,14.316,0,0,0-.771-2.3,12.318,12.318,0,0,0-1.074-1.969,11.456,11.456,0,0,0-1.375-1.668,10.973,10.973,0,0,0-1.676-1.367,13.005,13.005,0,0,0-2-1.082l-.041-.016a14.688,14.688,0,0,0-2.279-.765,16.124,16.124,0,0,0-2.633-.481Zm3.255-14.014H56.1l-.106-.016a3.021,3.021,0,0,1-1.058-.317,3.256,3.256,0,0,1-.9-.692,2.971,2.971,0,0,1-.594-1A3.185,3.185,0,0,1,53.264,18v-.138l.016-.13a3.034,3.034,0,0,1,.317-1.05,3.075,3.075,0,0,1,2.921-1.668,41.491,41.491,0,0,1,6.169.822,32.542,32.542,0,0,1,5.518,1.676,27.735,27.735,0,0,1,4.85,2.555,24.578,24.578,0,0,1,7.332,7.585,27.321,27.321,0,0,1,2.393,4.923,33.128,33.128,0,0,1,1.5,5.566,42.2,42.2,0,0,1,.627,6.2l.008.114a2.907,2.907,0,0,1-.22,1.123,3.212,3.212,0,0,1-.618.977,2.881,2.881,0,0,1-.977.692,3.049,3.049,0,0,1-1.164.269H81.8a3.083,3.083,0,0,1-3.035-2.987,35.173,35.173,0,0,0-.513-5.16,27.187,27.187,0,0,0-1.2-4.557,21.45,21.45,0,0,0-1.839-3.865A18.316,18.316,0,0,0,69.6,25.128a21.48,21.48,0,0,0-3.8-1.978l-.032-.016a27.594,27.594,0,0,0-4.452-1.326,34.924,34.924,0,0,0-5.086-.667Z" fill="#e44499"/>
  </g>
</svg>
